X: 40748
T: Tottenham Reel, The
R: waltz
M: 3/4
K: Adorian
G|:EA AG AG|A4 G2|EA AG EF|G4 F2|
EA AG AG|A2 B2 cd|e2 d2 cB|c2 B2 AG|
EA AG AG|A4 G2|EA AG EF|G4 F2|
EA AG AG|A2 B2 cd|ed cB AG|1 A4z2:|2 A4e2||
|:ea ae ge|ea ab ag|ea ae ge|=f3 g3|
ea ae ge|ea ab ag|=f3 e3|d2 c2 BA|
ea ae ge|ea ab ag|ea ae ge|=f3 g3|
ea ae ge|ea ab ag|=f3 e3|d2 c2 BA:|

